docs/img/filter/shower.svg

<svg width="22" height="22" viewBox="0 0 22 22" fill="none" xmlns="http://www.w3.org/2000/svg">
<path d="M20 0H14C13.4 0 13 0.4 13 1V4H12C11.6 4 11.3 4.2 11.1 4.6L9.09997 8.6C8.89997 8.9 8.99997 9.3 9.09997 9.6C9.29997 9.8 9.69997 10 9.99997 10H18C18.3 10 18.7 9.8 18.9 9.5C19.1 9.2 19.1 8.8 18.9 8.5L16.9 4.5C16.7 4.2 16.4 4 16 4H15V2H20L20 21.0001C20 21.6001 20.4 22.0001 21 22.0001C21.6 22.0001 22 21.6001 22 21.0001L22 1C22 0.4 21.6 0 21 0H20ZM15.4 6L16.4 8H11.6L12.6 6H15.4Z" fill="black" fill-opacity="0.9"/>
<path d="M7 22.0001H13C13.6 22.0001 14 21.6001 14 21.0001V18.6001L15.4 17.9001C15.6 17.8001 15.8 17.6001 15.9 17.4001L17.9 14.4001C18 14.1001 18 13.7001 17.8 13.5001C17.6 13.2001 17.3 13.0001 17 13.0001H7.1L8 6.10012C8 5.80012 7.9 5.50012 7.8 5.30012C7.6 5.10012 7.3 5.00012 7 5.00012H5V3.00012H3V5.00012H1C0.7 5.00012 0.4 5.10012 0.2 5.30012C0.1 5.60012 0 5.80012 0 6.10012L1 14.1001C1.1 14.6001 1.5 15.0001 2 15.0001H3.4L6 18.2001V21.0001C6 21.6001 6.4 22.0001 7 22.0001ZM2.1 7.00012H5.8L5 13.0001H4H2.9L2.1 7.00012ZM5.6 15.0001H6H15.5L14.2 16.3001L12.5 17.1001C12.2 17.3001 12 17.6001 12 18.0001V20.0001H8V18.0001C8 17.8001 8 17.7001 7.9 17.6001L5.6 15.0001Z" fill="black" fill-opacity="0.9"/>
</svg>

<svg width="22" height="22" fill="none" xmlns="http://www.w3.org/2000/svg"><path d="M20 0h-6c-.6 0-1 .4-1 1v3h-1c-.4 0-.7.2-.9.6l-2 4c-.2.3-.1.7 0 1 .2.2.6.4.9.4h8c.3 0 .7-.2.9-.5.2-.3.2-.7 0-1l-2-4c-.2-.3-.5-.5-.9-.5h-1V2h5v19c0 .6.4 1 1 1s1-.4 1-1V1c0-.6-.4-1-1-1h-1zm-4.6 6l1 2h-4.8l1-2h2.8z" fill="#000" fill-opacity=".9"/><path d="M7 22h6c.6 0 1-.4 1-1v-2.4l1.4-.7c.2-.1.4-.3.5-.5l2-3c.1-.3.1-.7-.1-.9-.2-.3-.5-.5-.8-.5H7.1L8 6.1c0-.3-.1-.6-.2-.8-.2-.2-.5-.3-.8-.3H5V3H3v2H1c-.3 0-.6.1-.8.3-.1.3-.2.5-.2.8l1 8c.1.5.5.9 1 .9h1.4L6 18.2V21c0 .6.4 1 1 1zM2.1 7h3.7L5 13H2.9l-.8-6zm3.5 8h9.9l-1.3 1.3-1.7.8c-.3.2-.5.5-.5.9v2H8v-2c0-.2 0-.3-.1-.4L5.6 15z" fill="#000" fill-opacity=".9"/></svg>
